X:360
T: Qichelu yaoxiushang yuntian
N: C1861
O: China,Qinghai Tongren
S: I, 229, 2)]
N: Hui Han
R: Shange, Huar, Baoanling]
M: 2/4
L: 1/16
K: G
e2e2e2dB | d2e2e2dB | d2deBAGE | E8- | E6E2 | d3eBAG2 | E4A2B2 |
d2d2e2e2 | E4A2GA | B2d2d2BA | A4A4- | A8 | A4z4

@@@ Tune index: 6915
